X:535
T: Jer the Rigger
T: Jer an Rig\'eara
S: B.Breathnach: "Ceol Rince na hEireann" II/128
Z: B.Black
L: 1/8
M: 2/4
R: polka
K: A
f|eA eA|e/f/e/d/ cA|dd/c/ d/e/f/g/|a/g/f/g/ ef|
eA eA|e/f/e/d/ cA|df/d/ ce/c/|1 B/A/B/c/ A :|2 B/A/B/c/ A2||
a>e f/e/c/e/|a>e f/e/c/A/|dd/c/ d/e/f/g/|a/g/f/g/ e2|
a>e f/e/c/e/|a>e f/e/c/A/|df/d/ ce/c/|B/A/B/c/ A2 :|

